icons/vapor-filled.svg

<svg width="256" height="256" viewBox="0 0 256 256" fill="none" xmlns="http://www.w3.org/2000/svg">
<rect width="256" height="256" rx="60" fill="#25C4F2" />
<path fill-rule="evenodd" clip-rule="evenodd" d="M49.725 73H102.475L76.09 128L49.725 73ZM155.22 73H207.97L181.59 128L155.22 73Z" fill="#E9F9FD" fill-opacity="0.1"/>
<path fill-rule="evenodd" clip-rule="evenodd" d="M76.1 128H128.845L102.47 183L76.1 128Z" fill="white" fill-opacity="0.22"/>
<path fill-rule="evenodd" clip-rule="evenodd" d="M128.845 128H181.595L155.22 183L128.845 128Z" fill="white" fill-opacity="0.2"/>
<path fill-rule="evenodd" clip-rule="evenodd" d="M128.845 128H76.095L102.47 73L128.845 128Z" fill="white" fill-opacity="0.4"/>
<path fill-rule="evenodd" clip-rule="evenodd" d="M181.59 128H128.84L155.22 73L181.59 128Z" fill="white" fill-opacity="0.4"/>
<path fill-rule="evenodd" clip-rule="evenodd" d="M155.22 183H102.47L128.845 128L155.22 183Z" fill="white" fill-opacity="0.5"/>
<path fill-rule="evenodd" clip-rule="evenodd" d="M45.47 70.335C45.9203 69.6201 46.5445 69.031 47.2842 68.6226C48.0239 68.2143 48.8551 68.0001 49.7 68H102.45C103.393 67.9999 104.317 68.2665 105.115 68.769C105.913 69.2715 106.553 69.9895 106.96 70.84L128.825 116.44L150.69 70.84C151.097 69.9895 151.737 69.2715 152.535 68.769C153.333 68.2665 154.257 67.9999 155.2 68H207.95C208.795 67.9999 209.627 68.214 210.367 68.6224C211.106 69.0308 211.731 69.62 212.181 70.3352C212.632 71.0503 212.894 71.8679 212.942 72.7117C212.991 73.5554 212.825 74.3978 212.46 75.16L159.725 185.12C159.321 185.98 158.682 186.707 157.88 187.217C157.079 187.726 156.15 187.998 155.2 188H102.45C101.507 188 100.583 187.734 99.7851 187.231C98.987 186.728 98.3474 186.011 97.94 185.16L45.19 75.16C44.8251 74.3976 44.6593 73.5552 44.7083 72.7114C44.7573 71.8676 45.0193 71.05 45.47 70.335ZM155.22 84.565L173.65 123H136.79L155.22 84.565ZM57.67 78L76.1 116.435L94.53 78H57.67ZM102.47 84.565L120.9 123H84.04L102.47 84.565ZM163.16 78L181.59 116.435L200.025 78H163.16ZM155.22 171.435L136.79 133H173.65L155.22 171.435ZM147.275 178L128.845 139.565L110.415 178H147.275ZM102.475 171.435L84.035 133H120.895L102.465 171.435H102.475Z" fill="white"/>
</svg>

<svg xmlns="http://www.w3.org/2000/svg" width="256" height="256" fill="none"><rect width="256" height="256" fill="#25C4F2" rx="60"/><path fill="#E9F9FD" fill-opacity=".1" fill-rule="evenodd" d="M49.725 73h52.75L76.09 128zm105.495 0h52.75l-26.38 55z" clip-rule="evenodd"/><path fill="#fff" fill-opacity=".22" fill-rule="evenodd" d="M76.1 128h52.745l-26.375 55z" clip-rule="evenodd"/><path fill="#fff" fill-opacity=".2" fill-rule="evenodd" d="M128.845 128h52.75l-26.375 55z" clip-rule="evenodd"/><path fill="#fff" fill-opacity=".4" fill-rule="evenodd" d="M128.845 128h-52.75l26.375-55z" clip-rule="evenodd"/><path fill="#fff" fill-opacity=".4" fill-rule="evenodd" d="M181.59 128h-52.75l26.38-55z" clip-rule="evenodd"/><path fill="#fff" fill-opacity=".5" fill-rule="evenodd" d="M155.22 183h-52.75l26.375-55z" clip-rule="evenodd"/><path fill="#fff" fill-rule="evenodd" d="M45.47 70.335A5 5 0 0 1 49.7 68h52.75a5 5 0 0 1 4.51 2.84l21.865 45.6 21.865-45.6A5 5 0 0 1 155.2 68h52.75a5 5 0 0 1 4.992 4.712 5 5 0 0 1-.482 2.448l-52.735 109.96A5.01 5.01 0 0 1 155.2 188h-52.75a5 5 0 0 1-4.51-2.84l-52.75-110a5 5 0 0 1 .28-4.825m109.75 14.23L173.65 123h-36.86zM57.67 78l18.43 38.435L94.53 78zm44.8 6.565L120.9 123H84.04zM163.16 78l18.43 38.435L200.025 78zm-7.94 93.435L136.79 133h36.86zM147.275 178l-18.43-38.435L110.415 178zm-44.8-6.565L84.035 133h36.86l-18.43 38.435z" clip-rule="evenodd"/></svg>
